src/raw/bank/icon_32.svg

<svg xmlns="http://www.w3.org/2000/svg" width="32" height="32" fill="none" viewBox="0 0 32 32">
  <path stroke="#3F3F46" stroke-linejoin="round" stroke-width="2" d="m16 1 15 7H1l15-7Z" />
  <path stroke="#3F3F46" stroke-linecap="round" stroke-linejoin="round" stroke-width="2"
    d="M1 31h30M18 5h-4" />
  <path stroke="#3F3F46" stroke-linejoin="round" stroke-width="2"
    d="M13 27V12h6v15h-6ZM24 27V12h6v15h-6ZM2 27V12h6v15H2Z" />
</svg>

<svg width="32" height="32" viewBox="0 0 32 32" fill="none" xmlns="http://www.w3.org/2000/svg">
<path d="M16 1L31 8H16H1L16 1Z" stroke="#71717A" stroke-width="1.5" stroke-linejoin="round"/>
<path d="M1 31H31" stroke="#71717A" stroke-width="1.5" stroke-linecap="round" stroke-linejoin="round"/>
<path d="M18 5H14" stroke="#71717A" stroke-width="1.5" stroke-linecap="round" stroke-linejoin="round"/>
<path d="M13 27V12H19V27H13Z" stroke="#71717A" stroke-width="1.5" stroke-linejoin="round"/>
<path d="M24 27V12H30V27H24Z" stroke="#71717A" stroke-width="1.5" stroke-linejoin="round"/>
<path d="M2 27V12H8V27H2Z" stroke="#71717A" stroke-width="1.5" stroke-linejoin="round"/>
</svg>
